Newaita-dark/apps/22/baka-mplayer.svg

<?xml version="1.0" encoding="UTF-8"?>
<svg xmlns="http://www.w3.org/2000/svg" xmlns:xlink="http://www.w3.org/1999/xlink" width="22pt" height="22pt" viewBox="0 0 22 22" version="1.1">
<defs>
<radialGradient id="radial0" gradientUnits="userSpaceOnUse" cx="450.908936" cy="189.579361" fx="450.908936" fy="189.579361" r="21.166656" gradientTransform="matrix(0.000000119742,-0.0537161,-0.0966889,-0.0000000698078,29.927473,43.721789)">
<stop offset="0" style="stop-color:rgb(0%,0%,0%);stop-opacity:0.313725;"/>
<stop offset="0.222222" style="stop-color:rgb(0%,0%,0%);stop-opacity:0.27451;"/>
<stop offset="1" style="stop-color:rgb(0%,0%,0%);stop-opacity:0;"/>
</radialGradient>
<radialGradient id="radial1" gradientUnits="userSpaceOnUse" cx="450.908936" cy="189.579361" fx="450.908936" fy="189.579361" r="21.166656" gradientTransform="matrix(-0.000000119742,0.0537161,0.0966889,0.0000000698078,-8.097263,-5.175144)">
<stop offset="0" style="stop-color:rgb(0%,0%,0%);stop-opacity:0.313725;"/>
<stop offset="0.222222" style="stop-color:rgb(0%,0%,0%);stop-opacity:0.27451;"/>
<stop offset="1" style="stop-color:rgb(0%,0%,0%);stop-opacity:0;"/>
</radialGradient>
<radialGradient id="radial2" gradientUnits="userSpaceOnUse" cx="450.908936" cy="189.579361" fx="450.908936" fy="189.579361" r="21.166656" gradientTransform="matrix(-0.000000119742,-0.0537161,0.0966889,-0.0000000698078,-8.097263,43.721789)">
<stop offset="0" style="stop-color:rgb(0%,0%,0%);stop-opacity:0.313725;"/>
<stop offset="0.222222" style="stop-color:rgb(0%,0%,0%);stop-opacity:0.27451;"/>
<stop offset="1" style="stop-color:rgb(0%,0%,0%);stop-opacity:0;"/>
</radialGradient>
<radialGradient id="radial3" gradientUnits="userSpaceOnUse" cx="450.908936" cy="189.579361" fx="450.908936" fy="189.579361" r="21.166656" gradientTransform="matrix(0.000000119742,0.0537161,-0.0966889,0.0000000698078,29.927472,-5.175144)">
<stop offset="0" style="stop-color:rgb(0%,0%,0%);stop-opacity:0.313725;"/>
<stop offset="0.222222" style="stop-color:rgb(0%,0%,0%);stop-opacity:0.27451;"/>
<stop offset="1" style="stop-color:rgb(0%,0%,0%);stop-opacity:0;"/>
</radialGradient>
<linearGradient id="linear0" gradientUnits="userSpaceOnUse" x1="255.323059" y1="233.5" x2="255.323044" y2="254.666656" gradientTransform="matrix(0.00918504,0,0,0.0429729,8.569953,9.239164)">
<stop offset="0" style="stop-color:rgb(0%,0%,0%);stop-opacity:0.27451;"/>
<stop offset="1" style="stop-color:rgb(0%,0%,0%);stop-opacity:0;"/>
</linearGradient>
<linearGradient id="linear1" gradientUnits="userSpaceOnUse" x1="254" y1="-168.666672" x2="254" y2="233.5" gradientTransform="matrix(0.0373185,0,0,0.0373185,1.436198,10.559446)">
<stop offset="0" style="stop-color:rgb(38.039216%,38.039216%,38.039216%);stop-opacity:1;"/>
<stop offset="1" style="stop-color:rgb(25.882353%,25.882353%,25.882353%);stop-opacity:1;"/>
</linearGradient>
<linearGradient id="linear2" gradientUnits="userSpaceOnUse" x1="254" y1="212.333328" x2="254" y2="154.125" gradientTransform="matrix(1,0,0,1,0,-15.875267)">
<stop offset="0" style="stop-color:rgb(87.843137%,87.843137%,87.843137%);stop-opacity:1;"/>
<stop offset="1" style="stop-color:rgb(93.333333%,93.333333%,93.333333%);stop-opacity:1;"/>
</linearGradient>
<linearGradient id="linear3" gradientUnits="userSpaceOnUse" x1="169.333328" y1="117.083344" x2="169.333328" y2="-31.083334" >
<stop offset="0" style="stop-color:rgb(87.843137%,87.843137%,87.843137%);stop-opacity:1;"/>
<stop offset="1" style="stop-color:rgb(93.333333%,93.333333%,93.333333%);stop-opacity:1;"/>
</linearGradient>
<linearGradient id="linear4" gradientUnits="userSpaceOnUse" x1="169.333328" y1="117.083344" x2="169.333328" y2="-31.083334" gradientTransform="matrix(1,0,0,1,169.333344,0)">
<stop offset="0" style="stop-color:rgb(87.843137%,87.843137%,87.843137%);stop-opacity:1;"/>
<stop offset="1" style="stop-color:rgb(93.333333%,93.333333%,93.333333%);stop-opacity:1;"/>
</linearGradient>
</defs>
<g id="surface1">
<path style=" stroke:none;fill-rule:nonzero;fill:url(#radial0);" d="M 11.824219 19.273438 L 13.644531 19.273438 L 13.644531 18.363281 L 11.824219 18.363281 Z M 11.824219 19.273438 "/>
<path style=" stroke:none;fill-rule:nonzero;fill:url(#radial1);" d="M 10.003906 19.273438 L 8.1875 19.273438 L 8.1875 20.183594 L 10.003906 20.183594 Z M 10.003906 19.273438 "/>
<path style=" stroke:none;fill-rule:nonzero;fill:url(#radial2);" d="M 10.003906 19.273438 L 8.1875 19.273438 L 8.1875 18.363281 L 10.003906 18.363281 Z M 10.003906 19.273438 "/>
<path style=" stroke:none;fill-rule:nonzero;fill:url(#radial3);" d="M 11.824219 19.273438 L 13.644531 19.273438 L 13.644531 20.183594 L 11.824219 20.183594 Z M 11.824219 19.273438 "/>
<path style=" stroke:none;fill-rule:nonzero;fill:url(#linear0);" d="M 10.003906 19.046875 L 11.824219 19.046875 L 11.824219 20.183594 L 10.003906 20.183594 Z M 10.003906 19.046875 "/>
<path style=" stroke:none;fill-rule:nonzero;fill:url(#linear1);" d="M 3.988281 2.089844 C 1.589844 2.105469 3.261719 10.199219 3.433594 12.351562 C 3.730469 16.234375 6.953125 19.273438 10.914062 19.273438 C 14.875 19.273438 18.101562 16.234375 18.398438 12.351562 C 18.566406 10.199219 20.238281 2.105469 17.84375 2.089844 C 16.621094 2.085938 14.402344 3.183594 12.640625 4.460938 C 12.085938 4.332031 11.507812 4.265625 10.914062 4.265625 C 10.320312 4.265625 9.742188 4.332031 9.191406 4.460938 C 7.429688 3.183594 5.210938 2.085938 3.988281 2.089844 Z M 3.988281 2.089844 "/>
<path style=" stroke:none;fill-rule:nonzero;fill:rgb(100%,100%,100%);fill-opacity:0.392157;" d="M 3.988281 2.089844 C 2.984375 2.097656 2.695312 3.515625 2.707031 5.320312 C 2.722656 3.628906 3.03125 2.328125 3.988281 2.324219 C 5.210938 2.320312 7.429688 3.417969 9.191406 4.695312 C 9.742188 4.566406 10.320312 4.496094 10.914062 4.496094 C 11.507812 4.496094 12.085938 4.566406 12.640625 4.695312 C 14.402344 3.417969 16.621094 2.320312 17.84375 2.324219 C 18.800781 2.328125 19.109375 3.628906 19.121094 5.320312 C 19.136719 3.515625 18.84375 2.097656 17.84375 2.089844 C 16.621094 2.085938 14.402344 3.183594 12.640625 4.460938 C 12.085938 4.332031 11.507812 4.265625 10.914062 4.265625 C 10.320312 4.265625 9.742188 4.332031 9.191406 4.460938 C 7.429688 3.183594 5.210938 2.085938 3.988281 2.089844 Z M 3.988281 2.089844 "/>
<path style=" stroke:none;fill-rule:nonzero;fill:rgb(0%,0%,0%);fill-opacity:0.235294;" d="M 2.710938 5.015625 C 2.675781 7.5625 3.332031 11.046875 3.433594 12.351562 C 3.730469 16.234375 6.953125 19.273438 10.914062 19.273438 C 14.875 19.273438 18.101562 16.234375 18.398438 12.351562 C 18.5 11.046875 19.152344 7.5625 19.121094 5.015625 C 19.089844 7.515625 18.496094 10.722656 18.398438 11.964844 C 18.101562 15.847656 14.875 18.882812 10.914062 18.882812 C 6.953125 18.882812 3.730469 15.847656 3.433594 11.964844 C 3.335938 10.722656 2.738281 7.515625 2.710938 5.015625 Z M 2.710938 5.015625 "/>
<path style=" stroke:none;fill-rule:nonzero;fill:rgb(12.941177%,12.941177%,12.941177%);fill-opacity:1;" d="M 3.988281 2.027344 C 3.667969 2.027344 3.410156 2.167969 3.21875 2.40625 C 3.027344 2.644531 2.894531 2.980469 2.804688 3.382812 C 2.625 4.191406 2.613281 5.273438 2.683594 6.421875 C 2.824219 8.722656 3.285156 11.292969 3.367188 12.359375 C 3.667969 16.273438 6.921875 19.335938 10.914062 19.335938 C 14.910156 19.335938 18.164062 16.273438 18.460938 12.359375 C 18.546875 11.292969 19.007812 8.722656 19.144531 6.421875 C 19.214844 5.273438 19.207031 4.191406 19.027344 3.382812 C 18.9375 2.980469 18.804688 2.644531 18.609375 2.40625 C 18.417969 2.167969 18.160156 2.027344 17.84375 2.027344 C 17.210938 2.023438 16.347656 2.300781 15.417969 2.738281 C 14.492188 3.167969 13.503906 3.757812 12.625 4.394531 C 12.074219 4.265625 11.503906 4.199219 10.914062 4.199219 C 10.328125 4.199219 9.753906 4.265625 9.203125 4.394531 C 8.328125 3.757812 7.339844 3.167969 6.414062 2.738281 C 5.480469 2.300781 4.617188 2.023438 3.988281 2.027344 Z M 3.988281 2.15625 C 4.578125 2.15625 5.4375 2.421875 6.359375 2.855469 C 7.28125 3.285156 8.273438 3.878906 9.152344 4.515625 L 9.175781 4.53125 L 9.207031 4.523438 C 9.753906 4.398438 10.328125 4.328125 10.914062 4.328125 C 11.503906 4.328125 12.078125 4.398438 12.625 4.523438 L 12.652344 4.53125 L 12.675781 4.515625 C 13.554688 3.878906 14.546875 3.285156 15.472656 2.855469 C 16.394531 2.421875 17.25 2.15625 17.84375 2.15625 C 18.125 2.15625 18.335938 2.273438 18.511719 2.488281 C 18.683594 2.703125 18.8125 3.019531 18.902344 3.410156 C 19.074219 4.195312 19.085938 5.269531 19.019531 6.414062 C 18.878906 8.703125 18.417969 11.261719 18.332031 12.347656 C 18.039062 16.199219 14.84375 19.207031 10.914062 19.207031 C 6.988281 19.207031 3.789062 16.199219 3.496094 12.347656 C 3.410156 11.261719 2.953125 8.703125 2.8125 6.414062 C 2.742188 5.269531 2.753906 4.195312 2.929688 3.410156 C 3.015625 3.019531 3.144531 2.703125 3.320312 2.488281 C 3.492188 2.273438 3.707031 2.15625 3.988281 2.15625 Z M 3.988281 2.15625 "/>
<path style="fill-rule:nonzero;fill:url(#linear2);stroke-width:3;stroke-linecap:round;stroke-linejoin:round;stroke:rgb(12.941177%,12.941177%,12.941177%);stroke-opacity:1;stroke-miterlimit:4;" d="M 253.975747 138.238995 C 230.523441 138.238995 211.707056 148.874343 211.707056 162.054902 L 211.707056 164.781914 C 211.707056 164.872815 211.707056 164.872815 211.707056 164.872815 C 211.797956 182.416594 230.614341 196.415257 253.975747 196.415257 C 277.337152 196.415257 296.244437 182.416594 296.335338 164.872815 C 296.335338 164.872815 296.335338 164.872815 296.335338 164.781914 L 296.335338 162.054902 C 296.335338 148.874343 277.428052 138.238995 253.975747 138.238995 Z M 253.975747 138.238995 " transform="matrix(0.0429729,0,0,0.0429729,0,9.239163)"/>
<path style="fill-rule:nonzero;fill:url(#linear3);stroke-width:3;stroke-linecap:round;stroke-linejoin:round;stroke:rgb(12.941177%,12.941177%,12.941177%);stroke-opacity:1;stroke-miterlimit:4;" d="M 169.347464 -31.10847 C 128.260479 -31.10847 95.26363 1.97928 95.26363 42.975365 C 95.26363 84.06235 128.260479 117.059199 169.347464 117.059199 C 210.34355 117.059199 243.431299 84.06235 243.431299 42.975365 C 243.431299 1.97928 210.34355 -31.10847 169.347464 -31.10847 Z M 169.347464 0.706674 C 192.79977 0.706674 211.707056 19.523059 211.707056 42.975365 C 211.707056 66.42767 192.79977 85.334956 169.347464 85.334956 C 145.895159 85.334956 126.987873 66.42767 126.987873 42.975365 C 126.987873 19.523059 145.895159 0.706674 169.347464 0.706674 Z M 169.347464 0.706674 " transform="matrix(0.0429729,0,0,0.0429729,0,9.239163)"/>
<path style="fill-rule:nonzero;fill:url(#linear4);stroke-width:3;stroke-linecap:round;stroke-linejoin:round;stroke:rgb(12.941177%,12.941177%,12.941177%);stroke-opacity:1;stroke-miterlimit:4;" d="M 338.694929 -31.10847 C 297.607943 -31.10847 264.611095 1.97928 264.611095 42.975365 C 264.611095 84.06235 297.607943 117.059199 338.694929 117.059199 C 379.691014 117.059199 412.778763 84.06235 412.778763 42.975365 C 412.778763 1.97928 379.691014 -31.10847 338.694929 -31.10847 Z M 338.694929 0.706674 C 362.147235 0.706674 380.96362 19.523059 380.96362 42.975365 C 380.96362 66.42767 362.147235 85.334956 338.694929 85.334956 C 315.242623 85.334956 296.335338 66.42767 296.335338 42.975365 C 296.335338 19.523059 315.242623 0.706674 338.694929 0.706674 Z M 338.694929 0.706674 " transform="matrix(0.0429729,0,0,0.0429729,0,9.239163)"/>
</g>
</svg>

<svg xmlns="http://www.w3.org/2000/svg" width="22pt" height="22pt" viewBox="0 0 22 22"><defs><radialGradient id="a" gradientUnits="userSpaceOnUse" cx="450.909" cy="189.579" fx="450.909" fy="189.579" r="21.167" gradientTransform="matrix(0 -.05372 -.09669 0 29.927 43.722)"><stop offset="0" stop-opacity=".314"/><stop offset=".222" stop-opacity=".275"/><stop offset="1" stop-opacity="0"/></radialGradient><radialGradient id="b" gradientUnits="userSpaceOnUse" cx="450.909" cy="189.579" fx="450.909" fy="189.579" r="21.167" gradientTransform="matrix(0 .05372 .09669 0 -8.097 -5.175)"><stop offset="0" stop-opacity=".314"/><stop offset=".222" stop-opacity=".275"/><stop offset="1" stop-opacity="0"/></radialGradient><radialGradient id="c" gradientUnits="userSpaceOnUse" cx="450.909" cy="189.579" fx="450.909" fy="189.579" r="21.167" gradientTransform="matrix(0 -.05372 .09669 0 -8.097 43.722)"><stop offset="0" stop-opacity=".314"/><stop offset=".222" stop-opacity=".275"/><stop offset="1" stop-opacity="0"/></radialGradient><radialGradient id="d" gradientUnits="userSpaceOnUse" cx="450.909" cy="189.579" fx="450.909" fy="189.579" r="21.167" gradientTransform="matrix(0 .05372 -.09669 0 29.927 -5.175)"><stop offset="0" stop-opacity=".314"/><stop offset=".222" stop-opacity=".275"/><stop offset="1" stop-opacity="0"/></radialGradient><linearGradient id="e" gradientUnits="userSpaceOnUse" x1="255.323" y1="233.5" x2="255.323" y2="254.667" gradientTransform="matrix(.00919 0 0 .04297 8.57 9.24)"><stop offset="0" stop-opacity=".275"/><stop offset="1" stop-opacity="0"/></linearGradient><linearGradient id="f" gradientUnits="userSpaceOnUse" x1="254" y1="-168.667" x2="254" y2="233.5" gradientTransform="matrix(.03732 0 0 .03732 1.436 10.56)"><stop offset="0" stop-color="#616161"/><stop offset="1" stop-color="#424242"/></linearGradient><linearGradient id="g" gradientUnits="userSpaceOnUse" x1="254" y1="212.333" x2="254" y2="154.125" gradientTransform="translate(0 -15.875)"><stop offset="0" stop-color="#e0e0e0"/><stop offset="1" stop-color="#eee"/></linearGradient><linearGradient id="h" gradientUnits="userSpaceOnUse" x1="169.333" y1="117.083" x2="169.333" y2="-31.083"><stop offset="0" stop-color="#e0e0e0"/><stop offset="1" stop-color="#eee"/></linearGradient><linearGradient id="i" gradientUnits="userSpaceOnUse" x1="169.333" y1="117.083" x2="169.333" y2="-31.083" gradientTransform="translate(169.333)"><stop offset="0" stop-color="#e0e0e0"/><stop offset="1" stop-color="#eee"/></linearGradient></defs><path d="M11.824 19.273h1.82v-.91h-1.82zm0 0" fill="url(#a)"/><path d="M10.004 19.273H8.188v.91h1.816zm0 0" fill="url(#b)"/><path d="M10.004 19.273H8.188v-.91h1.816zm0 0" fill="url(#c)"/><path d="M11.824 19.273h1.82v.91h-1.82zm0 0" fill="url(#d)"/><path d="M10.004 19.047h1.82v1.137h-1.82zm0 0" fill="url(#e)"/><path d="M3.988 2.09c-2.398.015-.726 8.11-.554 10.262a7.487 7.487 0 0 0 7.48 6.921 7.49 7.49 0 0 0 7.484-6.921c.168-2.153 1.84-10.247-.554-10.262-1.223-.004-3.442 1.094-5.203 2.37a7.62 7.62 0 0 0-1.727-.194c-.594 0-1.172.066-1.723.195C7.43 3.184 5.211 2.086 3.988 2.09zm0 0" fill="url(#f)"/><path d="M3.988 2.09c-1.004.008-1.293 1.426-1.281 3.23.016-1.691.324-2.992 1.281-2.996C5.211 2.32 7.43 3.418 9.191 4.695a7.561 7.561 0 0 1 3.45 0c1.761-1.277 3.98-2.375 5.203-2.37.957.003 1.265 1.304 1.277 2.995.016-1.804-.277-3.222-1.277-3.23-1.223-.004-3.442 1.094-5.203 2.37a7.62 7.62 0 0 0-1.727-.194c-.594 0-1.172.066-1.723.195C7.43 3.184 5.211 2.086 3.988 2.09zm0 0" fill="#fff" fill-opacity=".392"/><path d="M2.71 5.016c-.034 2.546.622 6.03.724 7.336a7.487 7.487 0 0 0 7.48 6.921 7.49 7.49 0 0 0 7.484-6.921c.102-1.305.754-4.79.723-7.336-.031 2.5-.625 5.707-.723 6.949a7.487 7.487 0 0 1-7.484 6.918 7.483 7.483 0 0 1-7.48-6.918c-.098-1.242-.696-4.45-.723-6.95zm0 0" fill-opacity=".235"/><path d="M3.988 2.027c-.32 0-.578.141-.77.38-.19.238-.323.573-.413.976-.18.808-.192 1.89-.121 3.039.14 2.3.601 4.871.683 5.937a7.553 7.553 0 0 0 7.547 6.977 7.548 7.548 0 0 0 7.547-6.977c.086-1.066.547-3.636.684-5.937.07-1.149.062-2.23-.118-3.04-.09-.402-.222-.737-.418-.976a.955.955 0 0 0-.765-.379c-.633-.004-1.496.274-2.426.711-.926.43-1.914 1.02-2.793 1.657a7.484 7.484 0 0 0-1.71-.196 7.51 7.51 0 0 0-1.712.196 17.233 17.233 0 0 0-2.789-1.657c-.934-.437-1.797-.715-2.426-.71zm0 .13c.59 0 1.45.265 2.371.698.922.43 1.914 1.024 2.793 1.66l.024.016.031-.008a7.673 7.673 0 0 1 1.707-.195c.59 0 1.164.07 1.711.195l.027.008.024-.015a17.494 17.494 0 0 1 2.797-1.66c.922-.434 1.777-.7 2.37-.7.282 0 .493.117.669.332.172.215.3.532.39.922.172.785.184 1.86.118 3.004-.141 2.29-.602 4.848-.688 5.934a7.417 7.417 0 0 1-7.418 6.859 7.42 7.42 0 0 1-7.418-6.86c-.086-1.085-.543-3.644-.683-5.933-.07-1.144-.06-2.219.117-3.004.086-.39.215-.707.39-.922a.815.815 0 0 1 .668-.332zm0 0" fill="#212121"/><path d="M253.976 138.239c-23.453 0-42.269 10.635-42.269 23.816V164.872c.091 17.545 18.907 31.543 42.269 31.543 23.361 0 42.268-13.998 42.36-31.542v-2.818c0-13.18-18.908-23.816-42.36-23.816zm0 0" transform="matrix(.04297 0 0 .04297 0 9.24)" fill="url(#g)" stroke-width="3" stroke-linecap="round" stroke-linejoin="round" stroke="#212121"/><path d="M169.347-31.108c-41.087 0-74.083 33.087-74.083 74.083a73.865 73.865 0 0 0 74.083 74.084c40.997 0 74.084-32.997 74.084-74.084 0-40.996-33.087-74.083-74.084-74.083zm0 31.815c23.453 0 42.36 18.816 42.36 42.268 0 23.453-18.907 42.36-42.36 42.36-23.452 0-42.36-18.907-42.36-42.36 0-23.452 18.908-42.268 42.36-42.268zm0 0" transform="matrix(.04297 0 0 .04297 0 9.24)" fill="url(#h)" stroke-width="3" stroke-linecap="round" stroke-linejoin="round" stroke="#212121"/><path d="M338.695-31.108c-41.087 0-74.084 33.087-74.084 74.083a73.865 73.865 0 0 0 74.084 74.084c40.996 0 74.084-32.997 74.084-74.084 0-40.996-33.088-74.083-74.084-74.083zm0 31.815a42.131 42.131 0 0 1 42.269 42.268c0 23.453-18.817 42.36-42.27 42.36-23.451 0-42.359-18.907-42.359-42.36 0-23.452 18.908-42.268 42.36-42.268zm0 0" transform="matrix(.04297 0 0 .04297 0 9.24)" fill="url(#i)" stroke-width="3" stroke-linecap="round" stroke-linejoin="round" stroke="#212121"/></svg>
